poi/svg/2502.svg

<?xml version="1.0" encoding="UTF-8" standalone="no"?>
<svg
   xmlns:dc="http://purl.org/dc/elements/1.1/"
   xmlns:cc="http://creativecommons.org/ns#"
   xmlns:rdf="http://www.w3.org/1999/02/22-rdf-syntax-ns#"
   xmlns:svg="http://www.w3.org/2000/svg"
   xmlns="http://www.w3.org/2000/svg"
   xmlns:sodipodi="http://sodipodi.sourceforge.net/DTD/sodipodi-0.dtd"
   xmlns:inkscape="http://www.inkscape.org/namespaces/inkscape"
   inkscape:version="1.0 (4035a4fb49, 2020-05-01)"
   sodipodi:docname="2502.svg"
   id="svg20"
   version="1.2"
   viewBox="0 0 42.519639 42.519639"
   height="14.999999mm"
   width="14.999999mm">
  <metadata
     id="metadata24">
    <rdf:RDF>
      <cc:Work
         rdf:about="">
        <dc:format>image/svg+xml</dc:format>
        <dc:type
           rdf:resource="http://purl.org/dc/dcmitype/StillImage" />
        <dc:title>Qt SVG Document</dc:title>
      </cc:Work>
    </rdf:RDF>
  </metadata>
  <sodipodi:namedview
     inkscape:current-layer="svg20"
     inkscape:window-maximized="0"
     inkscape:window-y="0"
     inkscape:window-x="0"
     inkscape:cy="28.346482"
     inkscape:cx="28.346482"
     inkscape:zoom="5.8410537"
     showgrid="false"
     id="namedview22"
     inkscape:window-height="480"
     inkscape:window-width="1034"
     inkscape:pageshadow="2"
     inkscape:pageopacity="0"
     guidetolerance="10"
     gridtolerance="10"
     objecttolerance="10"
     borderopacity="1"
     bordercolor="#666666"
     pagecolor="#ffffff" />
  <title
     id="title2">Qt SVG Document</title>
  <desc
     id="desc4">Generated with Qt</desc>
  <defs
     id="defs6" />
  <g
     transform="translate(5.25984,5.25984)"
     id="g18"
     stroke-linejoin="bevel"
     stroke-linecap="square"
     fill-rule="evenodd"
     stroke-width="1"
     stroke="#000000"
     fill="none">
    <g
       id="g10"
       font-style="normal"
       font-weight="400"
       font-size="7.8px"
       font-family="'MS Shell Dlg 2'"
       stroke="none"
       fill-opacity="1"
       fill="#489174">
      <path
         id="path8"
         d="M 37.2598,16 C 37.2598,27.7415 27.7415,37.2598 16,37.2598 4.25851,37.2598 -5.25984,27.7415 -5.25984,16 -5.25984,4.25851 4.25851,-5.25984 16,-5.25984 27.7415,-5.25984 37.2598,4.25851 37.2598,16"
         fill-rule="evenodd"
         vector-effect="non-scaling-stroke" />
    </g>
    <g
       id="g14"
       font-style="normal"
       font-weight="400"
       font-size="7.8px"
       font-family="'MS Shell Dlg 2'"
       transform="translate(17.1339,12.0315)"
       stroke="none"
       fill-opacity="0.94902"
       fill="#ffffff">
      <path
         id="path12"
         d="m -3.01123,2.64014 c 0.05599,0.13997 0.10148,0.30444 0.13647,0.4934 0.035,0.18897 0.08049,0.35344 0.13648,0.49341 l 0.33594,1.17578 H -3.59912 L -3.26318,3.62695 C -3.20719,3.48698 -3.1722,3.32251 -3.1582,3.13354 -3.14421,2.94458 -3.10921,2.78011 -3.05322,2.64014 h 0.04199 M 6.83594,-3.93164 C 6.61198,-3.70768 6.5,-3.44873 6.5,-3.15479 v 2.309575 c 0,0.209961 -0.06999,0.391927 -0.20996,0.545899 C 6.15007,-0.145345 6.00309,0.0016276 5.84912,0.141602 L 5.21924,0.540527 5.30322,1.7793 H 4.77832 C 4.83431,2.70313 4.97078,3.58846 5.18774,4.4353 5.4047,5.28215 5.73014,6.30745 6.16406,7.51123 6.47201,8.39307 6.59098,9.24341 6.521,10.0623 6.45101,10.8811 6.19906,11.5915 5.76514,12.1934 5.10726,13.1032 4.21842,13.5581 3.09863,13.5581 H 1.73389 v 1.5957 h 4.8081 v 1.7217 h -15.5581 v -1.7217 h 1.23877 V -6.09424 c 0,-0.25195 0.09448,-0.47941 0.28344,-0.68237 0.18897,-0.20296 0.40943,-0.30444 0.66138,-0.30444 h 7.57959 c 0.27995,0 0.5144,0.10148 0.70337,0.30444 0.18896,0.20296 0.28345,0.43042 0.28345,0.68237 V 12.5293 h 1.36474 c 0.78386,0 1.39974,-0.3149 1.84766,-0.9448 C 5.63216,10.6466 5.70915,9.40088 5.17725,7.84717 4.74333,6.64339 4.41089,5.57609 4.17993,4.64526 3.94897,3.71444 3.8055,2.75911 3.74951,1.7793 H 3.35059 L 3.53955,-2 c 0,-0.32194 0.15747,-0.61589 0.47241,-0.88184 0.31494,-0.26595 0.5564,-0.47591 0.72437,-0.62988 l 4.05224,-3.08642 0.46192,0.60888 -2.41455,2.05762 m -9.1543,-0.69287 c -0.88184,0 -1.6027,0.23795 -2.1626,0.71387 -0.55989,0.47591 -0.85384,1.15478 -0.88183,2.03662 0,0.76985 0.25895,1.413734 0.77685,1.9316372 0.47591,0.4899088 1.18978,0.7348628 2.1416,0.7348628 0.34994,0 0.68938,-0.034993 1.01831,-0.10498 0.32894,-0.069987 0.577397,-0.132975 0.745366,-0.188965 V -2.29395 H -2.6543 v 0.94483 h 0.81885 v 1.112792 c -0.02799,0.027995 -0.21696,0.041992 -0.56689,0.041992 -0.48991,0 -0.89234,-0.150472 -1.20728,-0.451416 -0.31494,-0.300944 -0.47241,-0.724368 -0.47241,-1.270268 0,-0.57389 0.17147,-1.00431 0.5144,-1.29126 0.34294,-0.28694 0.75936,-0.43042 1.24927,-0.43042 0.43392,0 0.83984,0.06999 1.21777,0.20997 l 0.251957,-0.94483 C -0.988607,-4.42855 -1.18107,-4.48454 -1.42603,-4.54053 -1.67098,-4.59652 -1.96842,-4.62451 -2.31836,-4.62451 M -3.30518,13.4321 c 0.89584,0 1.55721,-0.1644 1.98414,-0.4934 0.426916,-0.3289 0.640376,-0.7243 0.640376,-1.1863 0,-0.6858 -0.559896,-1.1967 -1.679686,-1.5327 C -2.79427,10.0658 -3.10921,9.93978 -3.30518,9.8418 -3.50114,9.74382 -3.59912,9.61084 -3.59912,9.44287 c 0,-0.34993 0.31494,-0.5249 0.94482,-0.5249 0.30795,0 0.5774,0.02799 0.80835,0.08398 0.23096,0.05599 0.41643,0.11198 0.5564,0.16797 L -0.932617,8.2251 C -1.33854,8.05713 -1.89844,7.97314 -2.6123,7.97314 c -0.76986,0 -1.37875,0.14348 -1.82666,0.43042 -0.44792,0.28695 -0.67188,0.67538 -0.67188,1.16529 0,0.40592 0.16447,0.72785 0.49341,0.96585 0.32894,0.2379 0.76636,0.4339 1.31225,0.5879 0.74187,0.2239 1.1128,0.4619 1.1128,0.7138 0,0.406 -0.34294,0.6089 -1.02881,0.6089 -0.30794,0 -0.60539,-0.035 -0.89234,-0.105 -0.28694,-0.07 -0.54939,-0.1469 -0.78735,-0.2309 l -0.29394,0.9868 c 0.19596,0.084 0.45841,0.161 0.78735,0.2309 0.32894,0.07 0.69637,0.105 1.10229,0.105 M -0.554688,7.02832 -2.19238,1.7373 h -1.57471 l -1.5957,5.29102 h 1.19677 l 0.39893,-1.36475 h 1.53271 l 0.39893,1.36475 h 1.280762 M 5.21924,-0.719238 C 5.30322,-0.747233 5.38021,-0.775228 5.4502,-0.803223 5.52018,-0.831217 5.58317,-0.859212 5.63916,-0.887207 5.75114,-0.943197 5.85262,-1.01318 5.9436,-1.09717 6.03459,-1.18115 6.08008,-1.29313 6.08008,-1.43311 V -2.86084 L 5.80713,-2.69287 C 5.61117,-2.48291 5.49919,-2.32194 5.47119,-2.20996 5.4152,-2.06999 5.37321,-1.91252 5.34521,-1.73755 5.31722,-1.56258 5.28923,-1.40511 5.26123,-1.26514 5.23324,-1.18115 5.21924,-0.999186 5.21924,-0.719238"
         fill-rule="evenodd"
         vector-effect="none" />
    </g>
    <g
       id="g16"
       font-style="normal"
       font-weight="400"
       font-size="7.8px"
       font-family="'MS Shell Dlg 2'"
       stroke="none"
       fill-opacity="1"
       fill="#489174" />
  </g>
</svg>

<?xml version="1.0" encoding="UTF-8" standalone="no"?>
<svg width="11.2889mm" height="11.2889mm"
 viewBox="0 0 32 32"
 xmlns="http://www.w3.org/2000/svg" xmlns:xlink="http://www.w3.org/1999/xlink"  version="1.2" baseProfile="tiny">
<title>Qt SVG Document</title>
<desc>Generated with Qt</desc>
<defs>
</defs>
<g fill="none" stroke="black" stroke-width="1" fill-rule="evenodd" stroke-linecap="square" stroke-linejoin="bevel" >

<g fill="#489174" fill-opacity="1" stroke="none" transform="matrix(1,0,0,1,0,0)"
font-family="MS Shell Dlg 2" font-size="7.8" font-weight="400" font-style="normal" 
>
<path vector-effect="non-scaling-stroke" fill-rule="evenodd" d="M37.2598,16 C37.2598,27.7415 27.7415,37.2598 16,37.2598 C4.25851,37.2598 -5.25984,27.7415 -5.25984,16 C-5.25984,4.25851 4.25851,-5.25984 16,-5.25984 C27.7415,-5.25984 37.2598,4.25851 37.2598,16 "/>
</g>

<g fill="#ffffff" fill-opacity="0.94902" stroke="none" transform="matrix(1,0,0,1,17.1339,12.0315)"
font-family="MS Shell Dlg 2" font-size="7.8" font-weight="400" font-style="normal" 
>
<path vector-effect="none" fill-rule="evenodd" d="M-3.01123,2.64014 C-2.95524,2.78011 -2.90975,2.94458 -2.87476,3.13354 C-2.83976,3.32251 -2.79427,3.48698 -2.73828,3.62695 L-2.40234,4.80273 L-3.59912,4.80273 L-3.26318,3.62695 C-3.20719,3.48698 -3.1722,3.32251 -3.1582,3.13354 C-3.14421,2.94458 -3.10921,2.78011 -3.05322,2.64014 L-3.01123,2.64014 M6.83594,-3.93164 C6.61198,-3.70768 6.5,-3.44873 6.5,-3.15479 L6.5,-0.845215 C6.5,-0.635254 6.43001,-0.453288 6.29004,-0.299316 C6.15007,-0.145345 6.00309,0.0016276 5.84912,0.141602 L5.21924,0.540527 L5.30322,1.7793 L4.77832,1.7793 C4.83431,2.70313 4.97078,3.58846 5.18774,4.4353 C5.4047,5.28215 5.73014,6.30745 6.16406,7.51123 C6.47201,8.39307 6.59098,9.24341 6.521,10.0623 C6.45101,10.8811 6.19906,11.5915 5.76514,12.1934 C5.10726,13.1032 4.21842,13.5581 3.09863,13.5581 L1.73389,13.5581 L1.73389,15.1538 L6.54199,15.1538 L6.54199,16.8755 L-9.01611,16.8755 L-9.01611,15.1538 L-7.77734,15.1538 L-7.77734,-6.09424 C-7.77734,-6.34619 -7.68286,-6.57365 -7.4939,-6.77661 C-7.30493,-6.97957 -7.08447,-7.08105 -6.83252,-7.08105 L0.74707,-7.08105 C1.02702,-7.08105 1.26147,-6.97957 1.45044,-6.77661 C1.6394,-6.57365 1.73389,-6.34619 1.73389,-6.09424 L1.73389,12.5293 L3.09863,12.5293 C3.88249,12.5293 4.49837,12.2144 4.94629,11.5845 C5.63216,10.6466 5.70915,9.40088 5.17725,7.84717 C4.74333,6.64339 4.41089,5.57609 4.17993,4.64526 C3.94897,3.71444 3.8055,2.75911 3.74951,1.7793 L3.35059,1.7793 L3.53955,-2 C3.53955,-2.32194 3.69702,-2.61589 4.01196,-2.88184 C4.3269,-3.14779 4.56836,-3.35775 4.73633,-3.51172 L8.78857,-6.59814 L9.25049,-5.98926 L6.83594,-3.93164 M-2.31836,-4.62451 C-3.2002,-4.62451 -3.92106,-4.38656 -4.48096,-3.91064 C-5.04085,-3.43473 -5.3348,-2.75586 -5.36279,-1.87402 C-5.36279,-1.10417 -5.10384,-0.460286 -4.58594,0.0576172 C-4.11003,0.547526 -3.39616,0.79248 -2.44434,0.79248 C-2.0944,0.79248 -1.75496,0.757487 -1.42603,0.6875 C-1.09709,0.617513 -0.848633,0.554525 -0.680664,0.498535 L-0.680664,-2.29395 L-2.6543,-2.29395 L-2.6543,-1.34912 L-1.83545,-1.34912 L-1.83545,-0.236328 C-1.86344,-0.208333 -2.05241,-0.194336 -2.40234,-0.194336 C-2.89225,-0.194336 -3.29468,-0.344808 -3.60962,-0.645752 C-3.92456,-0.946696 -4.08203,-1.37012 -4.08203,-1.91602 C-4.08203,-2.48991 -3.91056,-2.92033 -3.56763,-3.20728 C-3.22469,-3.49422 -2.80827,-3.6377 -2.31836,-3.6377 C-1.88444,-3.6377 -1.47852,-3.56771 -1.10059,-3.42773 L-0.848633,-4.37256 C-0.988607,-4.42855 -1.18107,-4.48454 -1.42603,-4.54053 C-1.67098,-4.59652 -1.96842,-4.62451 -2.31836,-4.62451 M-3.30518,13.4321 C-2.40934,13.4321 -1.74797,13.2677 -1.32104,12.9387 C-0.894124,12.6098 -0.680664,12.2144 -0.680664,11.7524 C-0.680664,11.0666 -1.24056,10.5557 -2.36035,10.2197 C-2.79427,10.0658 -3.10921,9.93978 -3.30518,9.8418 C-3.50114,9.74382 -3.59912,9.61084 -3.59912,9.44287 C-3.59912,9.09294 -3.28418,8.91797 -2.6543,8.91797 C-2.34635,8.91797 -2.0769,8.94596 -1.84595,9.00195 C-1.61499,9.05794 -1.42952,9.11393 -1.28955,9.16992 L-0.932617,8.2251 C-1.33854,8.05713 -1.89844,7.97314 -2.6123,7.97314 C-3.38216,7.97314 -3.99105,8.11662 -4.43896,8.40356 C-4.88688,8.69051 -5.11084,9.07894 -5.11084,9.56885 C-5.11084,9.97477 -4.94637,10.2967 -4.61743,10.5347 C-4.28849,10.7726 -3.85107,10.9686 -3.30518,11.1226 C-2.56331,11.3465 -2.19238,11.5845 -2.19238,11.8364 C-2.19238,12.2424 -2.53532,12.4453 -3.22119,12.4453 C-3.52913,12.4453 -3.82658,12.4103 -4.11353,12.3403 C-4.40047,12.2703 -4.66292,12.1934 -4.90088,12.1094 L-5.19482,13.0962 C-4.99886,13.1802 -4.73641,13.2572 -4.40747,13.3271 C-4.07853,13.3971 -3.7111,13.4321 -3.30518,13.4321 M-0.554688,7.02832 L-2.19238,1.7373 L-3.76709,1.7373 L-5.36279,7.02832 L-4.16602,7.02832 L-3.76709,5.66357 L-2.23438,5.66357 L-1.83545,7.02832 L-0.554688,7.02832 M5.21924,-0.719238 C5.30322,-0.747233 5.38021,-0.775228 5.4502,-0.803223 C5.52018,-0.831217 5.58317,-0.859212 5.63916,-0.887207 C5.75114,-0.943197 5.85262,-1.01318 5.9436,-1.09717 C6.03459,-1.18115 6.08008,-1.29313 6.08008,-1.43311 L6.08008,-2.86084 L5.80713,-2.69287 C5.61117,-2.48291 5.49919,-2.32194 5.47119,-2.20996 C5.4152,-2.06999 5.37321,-1.91252 5.34521,-1.73755 C5.31722,-1.56258 5.28923,-1.40511 5.26123,-1.26514 C5.23324,-1.18115 5.21924,-0.999186 5.21924,-0.719238 "/>
</g>

<g fill="#489174" fill-opacity="1" stroke="none" transform="matrix(1,0,0,1,0,0)"
font-family="MS Shell Dlg 2" font-size="7.8" font-weight="400" font-style="normal" 
>
</g>
</g>
</svg>
